resources/svg/text-t-light.svg

<svg xmlns="http://www.w3.org/2000/svg" viewBox="0 0 256 256" fill="currentColor"><path d="M213.99414,55.99512v32a6,6,0,1,1-12,0v-26h-68v132h26a6,6,0,0,1,0,12h-64a6,6,0,0,1,0-12h26v-132h-68v26a6,6,0,0,1-12,0v-32a6.00029,6.00029,0,0,1,6-6h160A6.00029,6.00029,0,0,1,213.99414,55.99512Z"/></svg>

<svg xmlns="http://www.w3.org/2000/svg" viewBox="0 0 256 256" fill="currentColor"><path d="M214,56V88a6,6,0,0,1-12,0V62H134V194h26a6,6,0,0,1,0,12H96a6,6,0,0,1,0-12h26V62H54V88a6,6,0,0,1-12,0V56a6,6,0,0,1,6-6H208A6,6,0,0,1,214,56Z"/></svg>
